Numix/22/actions/go-bottom.svg

<?xml version="1.0" encoding="UTF-8" standalone="no"?>
<svg
   xmlns:dc="http://purl.org/dc/elements/1.1/"
   xmlns:cc="http://creativecommons.org/ns#"
   xmlns:rdf="http://www.w3.org/1999/02/22-rdf-syntax-ns#"
   xmlns:svg="http://www.w3.org/2000/svg"
   xmlns="http://www.w3.org/2000/svg"
   xmlns:sodipodi="http://sodipodi.sourceforge.net/DTD/sodipodi-0.dtd"
   xmlns:inkscape="http://www.inkscape.org/namespaces/inkscape"
   width="22"
   height="22"
   viewBox="0 0 22 22"
   id="svg2"
   version="1.1"
   inkscape:version="0.91 r13725"
   sodipodi:docname="go-bottom.svg">
  <metadata
     id="metadata18">
    <rdf:RDF>
      <cc:Work
         rdf:about="">
        <dc:format>image/svg+xml</dc:format>
        <dc:type
           rdf:resource="http://purl.org/dc/dcmitype/StillImage" />
      </cc:Work>
    </rdf:RDF>
  </metadata>
  <defs
     id="defs16" />
  <sodipodi:namedview
     pagecolor="#ffffff"
     bordercolor="#666666"
     borderopacity="1"
     objecttolerance="10"
     gridtolerance="10"
     guidetolerance="10"
     inkscape:pageopacity="0"
     inkscape:pageshadow="2"
     inkscape:window-width="1366"
     inkscape:window-height="704"
     id="namedview14"
     showgrid="true"
     inkscape:zoom="47.553987"
     inkscape:cx="6.268993"
     inkscape:cy="5.6869595"
     inkscape:window-x="0"
     inkscape:window-y="27"
     inkscape:window-maximized="1"
     inkscape:current-layer="svg2">
    <inkscape:grid
       type="xygrid"
       id="grid4149" />
  </sodipodi:namedview>
  <g
     transform="matrix(1 0 0 -1 0 22)"
     id="g4">
    <path
       style="fill:#268bd2;fill-rule:evenodd"
       d="M 11,1 C 5.4779827,1 1,5.477983 1,11 1,13.254114 1.7549048,15.327399 3.0136719,17 7,18 15,18 18.986328,17 20.245095,15.327399 21,13.254114 21,11 21,5.477983 16.522017,1 11,1 Z"
       transform="matrix(1,0,0,-1,0,22)"
       id="path6"
       inkscape:connector-curvature="0"
       sodipodi:nodetypes="ssccss" />
    <g
       style="fill:#fff"
       id="g8">
      <path
         style="fill-rule:evenodd;fill-opacity:1;fill:#eaf4fb"
         d="M 19,5 C 17,2 14.039773,0.99999999 11,0.99999999 7.9673291,0.99999999 5,2 3,5"
         id="path10" />
      <path
         style="fill-opacity:1;fill:#dfeef9"
         d="m 11.003395,5 c -0.30606,0 -0.596458,0.130466 -0.8125,0.34375 L 6.3471455,9.0625 c -0.213041,0.201597 -0.33476,0.48908 -0.34375,0.78125 -0.015002,0.464552 0.2494155,0.881355 0.6875,1.0625 0.4380841,0.181146 0.9511864,0.08307 1.28125,-0.25 l 2.0312495,-1.96875 0,8.3125 2,0 0,-8.3125 2.03125,1.96875 c 0.450088,0.438256 1.174913,0.438256 1.625,0 0.450087,-0.438257 0.450087,-1.155495 0,-1.59375 L 11.815895,5.34375 C 11.599854,5.130466 11.309453,5 11.003395,5 z"
         id="path12" />
    </g>
  </g>
</svg>

<svg xmlns="http://www.w3.org/2000/svg" viewBox="0 0 22 22">
 <g transform="matrix(1 0 0 -1 0 22)">
  <path d="m 11 1 c -5.522 0 -10 4.478 -10 10 0 2.254 0.755 4.327 2.01 6 3.986 1 11.986 1 15.973 0 1.259 -1.673 2.01 -3.746 2.01 -6 0 -5.522 -4.478 -10 -10 -10" transform="matrix(1,0,0,-1,0,22)" style="fill:#268bd2;fill-rule:evenodd"/>
  <g style="fill:#fff">
   <path d="m 19 5 c -2 -3 -4.96 -4 -8 -4 -3.03 0 -6 1 -8 4" style="fill:#eaf4fb;fill-opacity:1;fill-rule:evenodd"/>
   <path d="m 11 5 c -0.306 0 -0.596 0.13 -0.813 0.344 l -3.844 3.719 c -0.213 0.202 -0.335 0.489 -0.344 0.781 -0.015 0.465 0.249 0.881 0.688 1.063 0.438 0.181 0.951 0.083 1.281 -0.25 l 2.031 -1.969 0 8.313 2 0 0 -8.313 2.031 1.969 c 0.45 0.438 1.175 0.438 1.625 0 0.45 -0.438 0.45 -1.155 0 -1.594 l -3.844 -3.719 c -0.216 -0.213 -0.506 -0.344 -0.813 -0.344 z" style="fill:#dfeef9;fill-opacity:1"/>
  </g>
 </g>
</svg>
